svg/user/contacts_2_fill.svg

<?xml version="1.0" encoding="UTF-8"?>
<svg width="24px" height="24px" viewBox="0 0 24 24" version="1.1" xmlns="http://www.w3.org/2000/svg" xmlns:xlink="http://www.w3.org/1999/xlink">
    <title>contacts_2_fill</title>
    <g id="Icon" stroke="none" stroke-width="1" fill="none" fill-rule="evenodd">
        <g id="User" transform="translate(-624.000000, -144.000000)">
            <g id="contacts_2_fill" transform="translate(624.000000, 144.000000)">
                <path d="M24,0 L24,24 L0,24 L0,0 L24,0 Z M12.5935,23.2578 L12.5819,23.2595 L12.5109,23.295 L12.4919,23.2987 L12.4767,23.295 L12.4057,23.2595 C12.3958,23.2564 12.387,23.259 12.3821,23.2649 L12.378,23.2758 L12.3609,23.7031 L12.3659,23.7235 L12.3769,23.7357 L12.4805,23.8097 L12.4953,23.8136 L12.5071,23.8097 L12.6107,23.7357 L12.6233,23.7197 L12.6267,23.7031 L12.6096,23.2758 C12.6076,23.2657 12.601,23.2593 12.5935,23.2578 Z M12.8584,23.1453 L12.8445,23.1473 L12.6598,23.2397 L12.6499,23.2499 L12.6472,23.2611 L12.6651,23.6906 L12.6699,23.7034 L12.6784,23.7105 L12.8793,23.8032 C12.8914,23.8069 12.9022,23.803 12.9078,23.7952 L12.9118,23.7812 L12.8777,23.1665 C12.8753,23.1546 12.8674,23.147 12.8584,23.1453 Z M12.143,23.1473 C12.1332,23.1424 12.1222,23.1453 12.1156,23.1526 L12.1099,23.1665 L12.0758,23.7812 C12.0751,23.7927 12.0828,23.8019 12.0926,23.8046 L12.1083,23.8032 L12.3092,23.7105 L12.3186,23.7024 L12.3225,23.6906 L12.3404,23.2611 L12.3372,23.2485 L12.3278,23.2397 L12.143,23.1473 Z" id="MingCute" fill-rule="nonzero"></path>
                <path d="M8,2 C8.55228,2 9,2.44772 9,3 L15,3 C15,2.44772 15.4477,2 16,2 C16.5523,2 17,2.44772 17,3 L19,3 C20.1046,3 21,3.89543 21,5 L21,20 C21,21.1046 20.1046,22 19,22 L5,22 C3.89543,22 3,21.1046 3,20 L3,5 C3,3.89543 3.89543,3 5,3 L7,3 C7,2.44772 7.44772,2 8,2 Z M12,9 C11.4477,9 11,9.44772 11,10 C11,10.5523 11.4477,11 12,11 C12.5523,11 13,10.5523 13,10 C13,9.44772 12.5523,9 12,9 Z M9,10 C9,8.34315 10.3431,7 12,7 C13.6569,7 15,8.34315 15,10 C15,11.6569 13.6569,13 12,13 C10.3431,13 9,11.6569 9,10 Z M9.8513,16.3479 C9.3882,16.5584 9.10124,16.8586 8.94868,17.3162 C8.77404,17.8402 8.20772,18.1233 7.68377,17.9487 C7.15983,17.774 6.87667,17.2077 7.05132,16.6838 C7.39876,15.6414 8.1118,14.9416 9.0237,14.5271 C9.89712,14.1301 10.9352,14 12,14 C13.0648,14 14.1029,14.1301 14.9763,14.5271 C15.8882,14.9416 16.6012,15.6414 16.9487,16.6838 C17.1233,17.2077 16.8402,17.774 16.3162,17.9487 C15.7923,18.1233 15.226,17.8402 15.0513,17.3162 C14.8988,16.8586 14.6118,16.5584 14.1487,16.3479 C13.6471,16.1199 12.9352,16 12,16 C11.0648,16 10.3529,16.1199 9.8513,16.3479 Z" id="形状" fill="#09244B"></path>
            </g>
        </g>
    </g>
</svg>

<svg xmlns="http://www.w3.org/2000/svg" width="24" height="24"><g fill="none" fill-rule="evenodd"><path d="M24 0v24H0V0h24ZM12.594 23.258l-.012.002-.071.035-.02.004-.014-.004-.071-.036c-.01-.003-.019 0-.024.006l-.004.01-.017.428.005.02.01.013.104.074.015.004.012-.004.104-.074.012-.016.004-.017-.017-.427c-.002-.01-.009-.017-.016-.018Zm.264-.113-.014.002-.184.093-.01.01-.003.011.018.43.005.012.008.008.201.092c.012.004.023 0 .029-.008l.004-.014-.034-.614c-.003-.012-.01-.02-.02-.022Zm-.715.002a.023.023 0 0 0-.027.006l-.006.014-.034.614c0 .012.007.02.017.024l.015-.002.201-.093.01-.008.003-.011.018-.43-.003-.012-.01-.01-.184-.092Z"/><path fill="#09244B" d="M8 2a1 1 0 0 1 1 1h6a1 1 0 1 1 2 0h2a2 2 0 0 1 2 2v15a2 2 0 0 1-2 2H5a2 2 0 0 1-2-2V5a2 2 0 0 1 2-2h2a1 1 0 0 1 1-1Zm4 7a1 1 0 1 0 0 2 1 1 0 0 0 0-2Zm-3 1a3 3 0 1 1 6 0 3 3 0 0 1-6 0Zm.851 6.348c-.463.21-.75.51-.902.968a1 1 0 1 1-1.898-.632c.348-1.043 1.06-1.742 1.973-2.157C9.897 14.13 10.935 14 12 14s2.103.13 2.976.527c.912.415 1.625 1.114 1.973 2.157a1 1 0 0 1-1.898.632c-.152-.457-.44-.758-.902-.968C13.647 16.12 12.935 16 12 16s-1.647.12-2.149.348Z"/></g></svg>
